danissomo/mipt/results/[6]dt=0.0120_k=0.1000.csv
i, timestamp, command_velocity, target_velocity, actual_velocity, theory_q, actual_q, actual_qdd
 0, 0.000000, 0.001200, 0.000000, 0.000000, -2.280000, -2.280000, 0.000000
  1, 0.012062, 0.003000, 0.000600, 0.000600, -2.279964, -2.279998, 0.049743
  2, 0.024124, 0.005600, 0.002000, 0.002000, -2.279897, -2.279986, 0.116067
  3, 0.036205, 0.009900, 0.005100, 0.005100, -2.279778, -2.279946, 0.256608
  4, 0.048298, 0.015600, 0.009600, 0.009600, -2.279591, -2.279861, 0.372116
  5, 0.060329, 0.022100, 0.014900, 0.014900, -2.279326, -2.279729, 0.440507
  6, 0.072394, 0.028800, 0.020400, 0.020400, -2.278980, -2.279564, 0.455889
  7, 0.084492, 0.037300, 0.027700, 0.027700, -2.278532, -2.279305, 0.603377
  8, 0.096595, 0.047600, 0.036800, 0.036800, -2.277961, -2.278932, 0.751908
  9, 0.108653, 0.058300, 0.046300, 0.046300, -2.277262, -2.278491, 0.787844
 10, 0.120692, 0.070800, 0.057600, 0.057600, -2.276412, -2.277897, 0.938651
 11, 0.132754, 0.081500, 0.067100, 0.067100, -2.275434, -2.277355, 0.787593
 12, 0.144838, 0.096000, 0.080400, 0.080400, -2.274282, -2.276518, 1.100594
 13, 0.156899, 0.111300, 0.094500, 0.094500, -2.272946, -2.275564, 1.169016
 14, 0.168961, 0.128000, 0.110000, 0.110000, -2.271410, -2.274424, 1.285081
 15, 0.181020, 0.145500, 0.126300, 0.126300, -2.269664, -2.273133, 1.351705
 16, 0.193085, 0.161200, 0.140800, 0.140800, -2.267730, -2.271914, 1.201778
 17, 0.205148, 0.180700, 0.159100, 0.159100, -2.265562, -2.270275, 1.517088
 18, 0.217207, 0.202000, 0.179200, 0.179200, -2.263138, -2.268375, 1.666804
 19, 0.229303, 0.223700, 0.199700, 0.199700, -2.260453, -2.266323, 1.694743
 20, 0.241363, 0.247200, 0.222000, 0.222000, -2.257487, -2.263960, 1.849134
 21, 0.253419, 0.271100, 0.244700, 0.244700, -2.254234, -2.261429, 1.882817
 22, 0.265483, 0.292400, 0.269200, 0.269200, -2.250725, -2.258554, 2.030798
 23, 0.277584, 0.318300, 0.289500, 0.289500, -2.246905, -2.256078, 1.677580
 24, 0.289644, 0.346400, 0.316400, 0.316400, -2.242748, -2.252668, 2.230597
 25, 0.301730, 0.342100, 0.343300, 0.343300, -2.238643, -2.249108, 2.225569
 26, 0.313823, 0.343000, 0.345400, 0.345400, -2.234527, -2.245222, 0.173653
 27, 0.325914, 0.340600, 0.344200, 0.344200, -2.230440, -2.241084, -0.099255
 28, 0.337941, 0.338200, 0.343000, 0.343000, -2.226382, -2.236961, -0.099768
 29, 0.350000, 0.335700, 0.341700, 0.341700, -2.222353, -2.233536, -0.107811
 30, 0.362096, 0.329375, 0.336575, 0.336575, -2.218401, -2.229465, -0.423694
 31, 0.374191, 0.321300, 0.329700, 0.329700, -2.214545, -2.225550, -0.568404
 32, 0.386249, 0.312775, 0.322375, 0.322375, -2.210792, -2.222112, -0.607452
 33, 0.398309, 0.302500, 0.313300, 0.313300, -2.207162, -2.218445, -0.752514
 34, 0.410408, 0.293575, 0.305575, 0.305575, -2.203639, -2.215766, -0.638479
 35, 0.422469, 0.280717, 0.293917, 0.293917, -2.200270, -2.212168, -0.966594
 36, 0.434565, 0.268175, 0.282575, 0.282575, -2.197052, -2.209187, -0.937659
 37, 0.446658, 0.253117, 0.268717, 0.268717, -2.194015, -2.205964, -1.145945
 38, 0.458717, 0.238375, 0.255175, 0.255175, -2.191154, -2.203226, -1.122995
 39, 0.471082, 0.221117, 0.239117, 0.239117, -2.188501, -2.200362, -1.298686
 40, 0.483140, 0.204175, 0.223375, 0.223375, -2.186051, -2.197927, -1.305458
 41, 0.495238, 0.187917, 0.208317, 0.208317, -2.183796, -2.195875, -1.244701
 42, 0.507306, 0.168975, 0.190575, 0.190575, -2.181768, -2.193762, -1.470220
 43, 0.519402, 0.147117, 0.169917, 0.169917, -2.180003, -2.191677, -1.707755
 44, 0.531462, 0.125975, 0.149975, 0.149975, -2.178491, -2.189993, -1.653584
 45, 0.543489, 0.101917, 0.127117, 0.127117, -2.177268, -2.188399, -1.900555
 46, 0.555574, 0.078575, 0.104975, 0.104975, -2.176325, -2.187172, -1.832147
 47, 0.567673, 0.056717, 0.084317, 0.084317, -2.175645, -2.186276, -1.707454
 48, 0.579732, 0.028178, 0.056978, 0.056978, -2.175306, -2.185427, -2.267094
 49, 0.591791, 0.002717, 0.032717, 0.032717, -2.175274, -2.184974, -2.011882
 