danissomo/mipt/results/dt=0.0120_a=3.00_k=0.0010_jmv=1.csv
i, timestamp, command_velocity, target_velocity, actual_velocity, theory_q, actual_q, actual_qdd
 0, 0.000000, 0.001000, 0.000000, 0.000000, -2.280000, -2.280000, 0.000000
  1, 0.013181, 0.002000, 0.001000, 0.001000, -2.279976, -2.279996, 0.083333
  2, 0.025265, 0.004000, 0.002000, 0.002000, -2.279928, -2.279980, 0.083333
  3, 0.037348, 0.007000, 0.004000, 0.004000, -2.279844, -2.279949, 0.166667
  4, 0.049423, 0.011000, 0.007000, 0.007000, -2.279712, -2.279890, 0.250000
  5, 0.061502, 0.016000, 0.011000, 0.011000, -2.279520, -2.279815, 0.333333
  6, 0.073707, 0.022000, 0.016000, 0.016000, -2.279256, -2.279677, 0.416667
  7, 0.085770, 0.029000, 0.022000, 0.022000, -2.278908, -2.279479, 0.500000
  8, 0.097871, 0.037000, 0.028000, 0.028000, -2.278464, -2.279209, 0.500000
  9, 0.109937, 0.046000, 0.029000, 0.029000, -2.277912, -2.278919, 0.083333
 10, 0.122021, 0.056000, 0.037000, 0.037000, -2.277240, -2.278486, 0.666667
 11, 0.134086, 0.067000, 0.046000, 0.046000, -2.276436, -2.278040, 0.750000
 12, 0.146146, 0.079000, 0.056000, 0.056000, -2.275488, -2.277292, 0.833333
 13, 0.158209, 0.092000, 0.067000, 0.067000, -2.274384, -2.276642, 0.916667
 14, 0.170312, 0.106000, 0.092000, 0.092000, -2.273112, -2.275693, 2.083333
 15, 0.182403, 0.121000, 0.106000, 0.106000, -2.271660, -2.274693, 1.166667
 16, 0.194648, 0.137000, 0.121000, 0.121000, -2.270016, -2.273339, 1.250000
 17, 0.206882, 0.154000, 0.137000, 0.137000, -2.268168, -2.271801, 1.333333
 18, 0.219060, 0.172000, 0.154000, 0.154000, -2.266104, -2.270070, 1.416667
 19, 0.231159, 0.191000, 0.172000, 0.172000, -2.263812, -2.268476, 1.500000
 20, 0.243346, 0.211000, 0.190000, 0.190000, -2.261280, -2.266358, 1.500001
 21, 0.255448, 0.232000, 0.209000, 0.209000, -2.258496, -2.264012, 1.583333
 22, 0.267560, 0.254000, 0.229000, 0.229000, -2.255448, -2.261426, 1.666666
 23, 0.279632, 0.277000, 0.244000, 0.244000, -2.252124, -2.259084, 1.250000
 24, 0.291779, 0.301000, 0.266000, 0.266000, -2.248512, -2.256029, 1.833335
 25, 0.303862, 0.326000, 0.289000, 0.289000, -2.244600, -2.252701, 1.916667
 26, 0.315941, 0.325000, 0.313000, 0.313000, -2.240700, -2.249089, 1.999999
 27, 0.328009, 0.323000, 0.325000, 0.325000, -2.236824, -2.245859, 1.000000
 28, 0.340116, 0.320000, 0.323000, 0.323000, -2.232984, -2.241962, -0.166665
 29, 0.352213, 0.316000, 0.320000, 0.320000, -2.229192, -2.238091, -0.250002
 30, 0.364288, 0.311000, 0.316000, 0.316000, -2.225460, -2.234256, -0.333332
 31, 0.376404, 0.305000, 0.316000, 0.316000, -2.221800, -2.231096, 0.000000
 32, 0.388472, 0.298000, 0.311000, 0.311000, -2.218224, -2.227360, -0.416669
 33, 0.400548, 0.290000, 0.305000, 0.305000, -2.214744, -2.223694, -0.499999
 34, 0.412628, 0.281000, 0.298000, 0.298000, -2.211372, -2.220110, -0.583333
 35, 0.424739, 0.271000, 0.290000, 0.290000, -2.208120, -2.217199, -0.666668
 36, 0.436811, 0.260000, 0.281000, 0.281000, -2.205000, -2.213795, -0.750000
 37, 0.448936, 0.248000, 0.260000, 0.260000, -2.202024, -2.210560, -1.750000
 38, 0.461016, 0.235000, 0.248000, 0.248000, -2.199204, -2.207536, -1.000000
 39, 0.473088, 0.221000, 0.235000, 0.235000, -2.196552, -2.204662, -1.083333
 40, 0.485170, 0.206000, 0.221000, 0.221000, -2.194080, -2.202391, -1.166667
 41, 0.497283, 0.190000, 0.206000, 0.206000, -2.191800, -2.199822, -1.250000
 42, 0.509354, 0.173000, 0.190000, 0.190000, -2.189724, -2.197435, -1.333334
 43, 0.521462, 0.155000, 0.173000, 0.173000, -2.187864, -2.195243, -1.416667
 44, 0.533527, 0.136000, 0.155000, 0.155000, -2.186232, -2.193257, -1.499999
 45, 0.545623, 0.116000, 0.137000, 0.137000, -2.184840, -2.191761, -1.499999
 46, 0.557696, 0.095000, 0.118000, 0.118000, -2.183700, -2.190183, -1.583333
 47, 0.569768, 0.073000, 0.104000, 0.104000, -2.182824, -2.189046, -1.166668
 48, 0.581850, 0.050000, 0.083000, 0.083000, -2.182224, -2.187916, -1.750000
 49, 0.593922, 0.026000, 0.067000, 0.067000, -2.181912, -2.187176, -1.333333
 