danissomo/mipt/results/dt=0.0120_a=2.00_k=0.0010_jmv=1.csv
i, timestamp, command_velocity, target_velocity, actual_velocity, theory_q, actual_q, actual_qdd
 0, 0.000000, 0.001000, 0.000000, 0.000000, -2.280000, -2.280000, 0.000000
  1, 0.012108, 0.002000, 0.001000, 0.001000, -2.279976, -2.279998, 0.083333
  2, 0.024218, 0.004000, 0.002000, 0.002000, -2.279928, -2.279984, 0.083333
  3, 0.036467, 0.007000, 0.004000, 0.004000, -2.279844, -2.279957, 0.166667
  4, 0.048526, 0.011000, 0.007000, 0.007000, -2.279712, -2.279906, 0.250000
  5, 0.060617, 0.016000, 0.011000, 0.011000, -2.279520, -2.279818, 0.333333
  6, 0.072725, 0.022000, 0.011000, 0.011000, -2.279256, -2.279708, 0.000000
  7, 0.084785, 0.029000, 0.016000, 0.016000, -2.278908, -2.279522, 0.416667
  8, 0.096871, 0.037000, 0.022000, 0.022000, -2.278464, -2.279311, 0.500000
  9, 0.108933, 0.046000, 0.029000, 0.029000, -2.277912, -2.278989, 0.583333
 10, 0.120992, 0.056000, 0.046000, 0.046000, -2.277240, -2.278543, 1.416667
 11, 0.133054, 0.067000, 0.056000, 0.056000, -2.276436, -2.278028, 0.833333
 12, 0.145120, 0.079000, 0.067000, 0.067000, -2.275488, -2.277299, 0.916667
 13, 0.157196, 0.092000, 0.079000, 0.079000, -2.274384, -2.276435, 1.000000
 14, 0.169258, 0.106000, 0.092000, 0.092000, -2.273112, -2.275425, 1.083333
 15, 0.181318, 0.121000, 0.104000, 0.104000, -2.271660, -2.274469, 1.000000
 16, 0.193377, 0.137000, 0.118000, 0.118000, -2.270016, -2.273162, 1.166667
 17, 0.205630, 0.154000, 0.133000, 0.133000, -2.268168, -2.271676, 1.250000
 18, 0.217691, 0.172000, 0.145000, 0.145000, -2.266104, -2.270294, 1.000000
 19, 0.229750, 0.191000, 0.158000, 0.158000, -2.263812, -2.268770, 1.083334
 20, 0.242016, 0.211000, 0.176000, 0.176000, -2.261280, -2.266751, 1.500001
 21, 0.254261, 0.232000, 0.195000, 0.195000, -2.258496, -2.264512, 1.583333
 22, 0.266319, 0.254000, 0.215000, 0.215000, -2.255448, -2.262040, 1.666666
 23, 0.278510, 0.277000, 0.232000, 0.232000, -2.252124, -2.259792, 1.416667
 24, 0.290571, 0.301000, 0.254000, 0.254000, -2.248512, -2.256865, 1.833335
 25, 0.302643, 0.326000, 0.274000, 0.274000, -2.244600, -2.254225, 1.666666
 26, 0.314711, 0.325000, 0.301000, 0.301000, -2.240700, -2.250205, 2.250000
 27, 0.326817, 0.323000, 0.325000, 0.325000, -2.236824, -2.246449, 2.000000
 28, 0.338909, 0.320000, 0.325000, 0.325000, -2.232984, -2.243199, -0.000000
 29, 0.350982, 0.316000, 0.320000, 0.320000, -2.229192, -2.239343, -0.416666
 30, 0.363117, 0.311000, 0.316000, 0.316000, -2.225460, -2.235539, -0.333332
 31, 0.375189, 0.305000, 0.311000, 0.311000, -2.221800, -2.231791, -0.416669
 32, 0.387266, 0.298000, 0.305000, 0.305000, -2.218224, -2.228720, -0.499999
 33, 0.399336, 0.290000, 0.298000, 0.298000, -2.214744, -2.225103, -0.583333
 34, 0.411407, 0.281000, 0.290000, 0.290000, -2.211372, -2.221575, -0.666668
 35, 0.423533, 0.271000, 0.281000, 0.281000, -2.208120, -2.218709, -0.750000
 36, 0.435603, 0.260000, 0.271000, 0.271000, -2.205000, -2.215372, -0.833333
 37, 0.447712, 0.248000, 0.260000, 0.260000, -2.202024, -2.212156, -0.916667
 38, 0.459815, 0.235000, 0.248000, 0.248000, -2.199204, -2.209072, -0.999999
 39, 0.471934, 0.221000, 0.240000, 0.240000, -2.196552, -2.206608, -0.666666
 40, 0.484003, 0.206000, 0.227000, 0.227000, -2.194080, -2.203798, -1.083333
 41, 0.496109, 0.190000, 0.213000, 0.213000, -2.191800, -2.201153, -1.166667
 42, 0.508181, 0.173000, 0.198000, 0.198000, -2.189724, -2.198684, -1.250000
 43, 0.520312, 0.155000, 0.186000, 0.186000, -2.187864, -2.196772, -1.000000
 44, 0.532377, 0.136000, 0.169000, 0.169000, -2.186232, -2.194658, -1.416667
 45, 0.544466, 0.116000, 0.151000, 0.151000, -2.184840, -2.192753, -1.499999
 46, 0.556568, 0.095000, 0.132000, 0.132000, -2.183700, -2.191069, -1.583333
 47, 0.568639, 0.073000, 0.116000, 0.116000, -2.182824, -2.189845, -1.333335
 48, 0.580772, 0.050000, 0.095000, 0.095000, -2.182224, -2.188595, -1.750000
 49, 0.592856, 0.026000, 0.073000, 0.073000, -2.181912, -2.187598, -1.833333
 