danissomo/mipt/results/dt=0.0120_a=6.00_k=0.0020_jmv=1.csv
i, timestamp, command_velocity, target_velocity, actual_velocity, theory_q, actual_q, actual_qdd
 0, 0.000000, 0.001000, 0.000000, 0.000000, -2.280000, -2.280000, 0.000000
  1, 0.012068, 0.003000, 0.001000, 0.001000, -2.279964, -2.279996, 0.083333
  2, 0.024201, 0.007000, 0.003000, 0.003000, -2.279880, -2.279976, 0.166667
  3, 0.036304, 0.013000, 0.007000, 0.007000, -2.279724, -2.279926, 0.333333
  4, 0.048376, 0.021000, 0.013000, 0.013000, -2.279472, -2.279847, 0.500000
  5, 0.060444, 0.031000, 0.021000, 0.021000, -2.279100, -2.279638, 0.666667
  6, 0.072562, 0.043000, 0.031000, 0.031000, -2.278584, -2.279416, 0.833333
  7, 0.084643, 0.057000, 0.043000, 0.043000, -2.277900, -2.279032, 1.000000
  8, 0.096713, 0.073000, 0.055000, 0.055000, -2.277024, -2.278504, 1.000000
  9, 0.108792, 0.091000, 0.069000, 0.069000, -2.275932, -2.277809, 1.166666
 10, 0.120870, 0.111000, 0.073000, 0.073000, -2.274600, -2.277080, 0.333334
 11, 0.132939, 0.133000, 0.091000, 0.091000, -2.273004, -2.276015, 1.500000
 12, 0.145062, 0.157000, 0.111000, 0.111000, -2.271120, -2.274716, 1.666667
 13, 0.157146, 0.183000, 0.133000, 0.133000, -2.268924, -2.273161, 1.833333
 14, 0.169268, 0.211000, 0.157000, 0.157000, -2.266392, -2.271639, 2.000000
 15, 0.181341, 0.241000, 0.183000, 0.183000, -2.263500, -2.270283, 2.166666
 16, 0.193481, 0.273000, 0.219000, 0.219000, -2.260224, -2.267979, 2.999999
 17, 0.205566, 0.307000, 0.273000, 0.273000, -2.256540, -2.265021, 4.500001
 18, 0.217686, 0.343000, 0.297000, 0.297000, -2.252424, -2.262243, 1.999999
 19, 0.229817, 0.381000, 0.331000, 0.331000, -2.247852, -2.258519, 2.833334
 20, 0.241909, 0.421000, 0.367000, 0.367000, -2.242800, -2.254367, 2.999999
 21, 0.253981, 0.463000, 0.405000, 0.405000, -2.237244, -2.249763, 3.166668
 22, 0.266050, 0.507000, 0.433000, 0.433000, -2.231160, -2.245563, 2.333333
 23, 0.278116, 0.553000, 0.475000, 0.475000, -2.224524, -2.240070, 3.500000
 24, 0.290208, 0.601000, 0.519000, 0.519000, -2.217312, -2.234059, 3.666669
 25, 0.302278, 0.651000, 0.553000, 0.553000, -2.209500, -2.228625, 2.833330
 26, 0.314408, 0.649000, 0.601000, 0.601000, -2.201712, -2.221605, 4.000003
 27, 0.326485, 0.645000, 0.651000, 0.651000, -2.193972, -2.214002, 4.166668
 28, 0.338609, 0.639000, 0.649000, 0.649000, -2.186304, -2.206213, -0.166669
 29, 0.350657, 0.631000, 0.645000, 0.645000, -2.178732, -2.198472, -0.333334
 30, 0.362727, 0.621000, 0.639000, 0.639000, -2.171280, -2.190801, -0.499999
 31, 0.374809, 0.609000, 0.631000, 0.631000, -2.163972, -2.184486, -0.666668
 32, 0.386884, 0.595000, 0.609000, 0.609000, -2.156832, -2.178311, -1.833330
 33, 0.399190, 0.579000, 0.595000, 0.595000, -2.149884, -2.173479, -1.166667
 34, 0.411261, 0.561000, 0.583000, 0.583000, -2.143152, -2.167541, -0.999998
 35, 0.423349, 0.541000, 0.567000, 0.567000, -2.136660, -2.160604, -1.333336
 36, 0.435417, 0.519000, 0.549000, 0.549000, -2.130432, -2.153881, -1.500001
 37, 0.448172, 0.495000, 0.541000, 0.541000, -2.124492, -2.148465, -0.666667
 38, 0.460225, 0.469000, 0.519000, 0.519000, -2.118864, -2.143235, -1.833335
 39, 0.472389, 0.441000, 0.471000, 0.471000, -2.113572, -2.138237, -3.999998
 40, 0.484453, 0.411000, 0.441000, 0.441000, -2.108640, -2.132767, -2.500000
 41, 0.496518, 0.379000, 0.411000, 0.411000, -2.104092, -2.127640, -2.500000
 42, 0.508579, 0.345000, 0.379000, 0.379000, -2.099952, -2.122879, -2.666667
 43, 0.520652, 0.309000, 0.345000, 0.345000, -2.096244, -2.118507, -2.833334
 44, 0.532719, 0.271000, 0.309000, 0.309000, -2.092992, -2.115165, -2.999998
 45, 0.544843, 0.231000, 0.273000, 0.273000, -2.090220, -2.111565, -3.000001
 46, 0.556964, 0.189000, 0.235000, 0.235000, -2.087952, -2.108420, -3.166666
 47, 0.569092, 0.145000, 0.195000, 0.195000, -2.086212, -2.105755, -3.333333
 48, 0.581160, 0.099000, 0.165000, 0.165000, -2.085024, -2.103910, -2.500001
 49, 0.593255, 0.051000, 0.121000, 0.121000, -2.084412, -2.102185, -3.666667
 