danissomo/mipt/results/dt=0.0040_a=2.00_k=0.0010_jmv=2.csv
i, timestamp, command_velocity, target_velocity, actual_velocity, theory_q, actual_q, actual_qdd
 0, 0.000000, 0.001000, 0.000000, 0.000000, -2.280000, -2.280000, 0.000000
  1, 0.004976, 0.002000, 0.000000, 0.000000, -2.279992, -2.280000, 0.000000
  2, 0.009045, 0.004000, 0.001000, 0.001000, -2.279976, -2.279996, 0.250000
  3, 0.013092, 0.007000, 0.002000, 0.002000, -2.279948, -2.279988, 0.250000
  4, 0.017625, 0.011000, 0.002000, 0.002000, -2.279904, -2.279988, 0.000000
  5, 0.021709, 0.016000, 0.004000, 0.004000, -2.279840, -2.279981, 0.500000
  6, 0.025830, 0.022000, 0.008000, 0.008000, -2.279752, -2.279961, 1.000000
  7, 0.029925, 0.029000, 0.016000, 0.016000, -2.279636, -2.279913, 2.000000
  8, 0.034367, 0.037000, 0.020000, 0.020000, -2.279488, -2.279877, 1.000000
  9, 0.038440, 0.046000, 0.032000, 0.032000, -2.279304, -2.279721, 3.000000
 10, 0.042495, 0.056000, 0.040000, 0.040000, -2.279080, -2.279577, 2.000000
 11, 0.046561, 0.067000, 0.048000, 0.048000, -2.278812, -2.279401, 2.000000
 12, 0.050645, 0.079000, 0.056000, 0.056000, -2.278496, -2.279193, 2.000000
 13, 0.054741, 0.092000, 0.064000, 0.064000, -2.278128, -2.278953, 2.000000
 14, 0.058812, 0.106000, 0.068000, 0.068000, -2.277704, -2.278821, 1.000000
 15, 0.062875, 0.121000, 0.076000, 0.076000, -2.277220, -2.278533, 2.000000
 16, 0.069293, 0.137000, 0.088000, 0.088000, -2.276672, -2.278041, 3.000000
 17, 0.076015, 0.154000, 0.100000, 0.100000, -2.276056, -2.277477, 3.000000
 18, 0.080074, 0.172000, 0.108000, 0.108000, -2.275368, -2.277061, 2.000000
 19, 0.084152, 0.191000, 0.112000, 0.112000, -2.274604, -2.276841, 1.000000
 20, 0.088251, 0.211000, 0.112000, 0.112000, -2.273760, -2.276841, 0.000000
 21, 0.092404, 0.232000, 0.116000, 0.116000, -2.272832, -2.276613, 1.000000
 22, 0.096467, 0.254000, 0.120000, 0.120000, -2.271816, -2.276377, 1.000000
 23, 0.100541, 0.277000, 0.128000, 0.128000, -2.270708, -2.275881, 2.000000
 24, 0.104650, 0.301000, 0.136000, 0.136000, -2.269504, -2.275353, 2.000000
 25, 0.108733, 0.326000, 0.144000, 0.144000, -2.268200, -2.274793, 2.000000
 26, 0.112799, 0.325000, 0.148000, 0.148000, -2.266900, -2.274501, 1.000000
 27, 0.117017, 0.323000, 0.156000, 0.156000, -2.265608, -2.273893, 2.000000
 28, 0.121080, 0.320000, 0.164000, 0.164000, -2.264328, -2.273253, 2.000000
 29, 0.125166, 0.316000, 0.172000, 0.172000, -2.263064, -2.272581, 2.000000
 30, 0.129225, 0.311000, 0.180000, 0.180000, -2.261820, -2.271877, 2.000000
 31, 0.133297, 0.305000, 0.188000, 0.188000, -2.260600, -2.271141, 2.000000
 32, 0.137371, 0.298000, 0.192000, 0.192000, -2.259408, -2.270761, 1.000000
 33, 0.141942, 0.290000, 0.200000, 0.200000, -2.258248, -2.269977, 2.000000
 34, 0.146005, 0.281000, 0.208000, 0.208000, -2.257124, -2.269161, 2.000000
 35, 0.150232, 0.271000, 0.216000, 0.216000, -2.256040, -2.268313, 2.000000
 36, 0.154296, 0.260000, 0.224000, 0.224000, -2.255000, -2.267433, 2.000000
 37, 0.158359, 0.248000, 0.232000, 0.232000, -2.254008, -2.266521, 2.000000
 38, 0.162415, 0.235000, 0.240000, 0.240000, -2.253068, -2.265577, 2.000000
 39, 0.166477, 0.221000, 0.240000, 0.240000, -2.252184, -2.264609, 0.000006
 40, 0.170538, 0.206000, 0.236000, 0.236000, -2.251360, -2.264133, -1.000000
 41, 0.174605, 0.190000, 0.228000, 0.228000, -2.250600, -2.263205, -2.000000
 42, 0.178695, 0.173000, 0.220000, 0.220000, -2.249908, -2.262309, -2.000000
 43, 0.182760, 0.155000, 0.212000, 0.212000, -2.249288, -2.261445, -2.000000
 44, 0.186819, 0.136000, 0.208000, 0.208000, -2.248744, -2.261025, -1.000000
 45, 0.190882, 0.116000, 0.200000, 0.200000, -2.248280, -2.260209, -2.000000
 46, 0.194941, 0.095000, 0.192000, 0.192000, -2.247900, -2.259425, -2.000000
 47, 0.198999, 0.073000, 0.184000, 0.184000, -2.247608, -2.258673, -2.000000
 48, 0.203059, 0.050000, 0.180000, 0.180000, -2.247408, -2.258309, -1.000000
 49, 0.207115, 0.026000, 0.168000, 0.168000, -2.247304, -2.257265, -3.000000
 