danissomo/mipt/results/dt=0.0120_a=3.00_k=0.0010_jmv=2.csv
i, timestamp, command_velocity, target_velocity, actual_velocity, theory_q, actual_q, actual_qdd
 0, 0.000000, 0.001000, 0.000000, 0.000000, -2.280000, -2.280000, 0.000000
  1, 0.012086, 0.002000, 0.001000, 0.001000, -2.279976, -2.279998, 0.083333
  2, 0.024176, 0.004000, 0.002000, 0.002000, -2.279928, -2.279984, 0.083333
  3, 0.036265, 0.007000, 0.002000, 0.002000, -2.279844, -2.279976, 0.000000
  4, 0.048339, 0.011000, 0.007000, 0.007000, -2.279712, -2.279926, 0.416667
  5, 0.060403, 0.016000, 0.011000, 0.011000, -2.279520, -2.279821, 0.333333
  6, 0.072462, 0.022000, 0.016000, 0.016000, -2.279256, -2.279695, 0.416667
  7, 0.084577, 0.029000, 0.022000, 0.022000, -2.278908, -2.279529, 0.500000
  8, 0.096669, 0.037000, 0.022000, 0.022000, -2.278464, -2.279441, 0.000000
  9, 0.108791, 0.046000, 0.022000, 0.022000, -2.277912, -2.279353, 0.000000
 10, 0.120982, 0.056000, 0.046000, 0.046000, -2.277240, -2.279037, 2.000000
 11, 0.133048, 0.067000, 0.056000, 0.056000, -2.276436, -2.278534, 0.833334
 12, 0.145108, 0.079000, 0.067000, 0.067000, -2.275488, -2.277816, 0.916667
 13, 0.157337, 0.092000, 0.079000, 0.079000, -2.274384, -2.277122, 1.000000
 14, 0.169425, 0.106000, 0.079000, 0.079000, -2.273112, -2.276490, 0.000000
 15, 0.181511, 0.121000, 0.092000, 0.092000, -2.271660, -2.275598, 1.083333
 16, 0.193578, 0.137000, 0.121000, 0.121000, -2.270016, -2.274344, 2.416667
 17, 0.205643, 0.154000, 0.137000, 0.137000, -2.268168, -2.272775, 1.333333
 18, 0.217707, 0.172000, 0.154000, 0.154000, -2.266104, -2.271009, 1.416667
 19, 0.229772, 0.191000, 0.172000, 0.172000, -2.263812, -2.269379, 1.500001
 20, 0.241833, 0.211000, 0.191000, 0.191000, -2.261280, -2.267223, 1.583333
 21, 0.253902, 0.232000, 0.211000, 0.211000, -2.258496, -2.264838, 1.666666
 22, 0.265964, 0.254000, 0.232000, 0.232000, -2.255448, -2.262212, 1.750000
 23, 0.278092, 0.277000, 0.250000, 0.250000, -2.252124, -2.259838, 1.500000
 24, 0.290237, 0.301000, 0.272000, 0.272000, -2.248512, -2.256738, 1.833335
 25, 0.302299, 0.326000, 0.295000, 0.295000, -2.244600, -2.253364, 1.916667
 26, 0.314376, 0.325000, 0.319000, 0.319000, -2.240700, -2.249704, 1.999999
 27, 0.326441, 0.323000, 0.325000, 0.325000, -2.236824, -2.246456, 0.500000
 28, 0.338501, 0.320000, 0.323000, 0.323000, -2.232984, -2.242564, -0.166665
 29, 0.350568, 0.316000, 0.320000, 0.320000, -2.229192, -2.238698, -0.250002
 30, 0.362687, 0.311000, 0.316000, 0.316000, -2.225460, -2.234872, -0.333332
 31, 0.374757, 0.305000, 0.311000, 0.311000, -2.221800, -2.231717, -0.416669
 32, 0.386826, 0.298000, 0.305000, 0.305000, -2.218224, -2.227991, -0.499999
 33, 0.398893, 0.290000, 0.299000, 0.299000, -2.214744, -2.224337, -0.499999
 34, 0.411010, 0.281000, 0.298000, 0.298000, -2.211372, -2.221357, -0.083334
 35, 0.423133, 0.271000, 0.290000, 0.290000, -2.208120, -2.217867, -0.666668
 36, 0.435258, 0.260000, 0.281000, 0.281000, -2.205000, -2.215605, -0.750000
 37, 0.447333, 0.248000, 0.271000, 0.271000, -2.202024, -2.211212, -0.833333
 38, 0.459448, 0.235000, 0.260000, 0.260000, -2.199204, -2.208072, -0.916667
 39, 0.471573, 0.221000, 0.248000, 0.248000, -2.196552, -2.205568, -1.000000
 40, 0.483693, 0.206000, 0.221000, 0.221000, -2.194080, -2.202741, -2.250000
 41, 0.495853, 0.190000, 0.206000, 0.206000, -2.191800, -2.200201, -1.250000
 42, 0.507925, 0.173000, 0.190000, 0.190000, -2.189724, -2.197847, -1.333334
 43, 0.520051, 0.155000, 0.173000, 0.173000, -2.187864, -2.196034, -1.416667
 44, 0.532128, 0.136000, 0.155000, 0.155000, -2.186232, -2.194048, -1.499999
 45, 0.544248, 0.116000, 0.136000, 0.136000, -2.184840, -2.192280, -1.583333
 46, 0.556315, 0.095000, 0.124000, 0.124000, -2.183700, -2.191216, -0.999999
 47, 0.568394, 0.073000, 0.098000, 0.098000, -2.182824, -2.189636, -2.166668
 48, 0.580532, 0.050000, 0.077000, 0.077000, -2.182224, -2.188548, -1.750000
 49, 0.592598, 0.026000, 0.055000, 0.055000, -2.181912, -2.187723, -1.833333
 