danissomo/mipt/results/dt=0.0120_a=2.00_k=0.0010_jmv=2.csv
i, timestamp, command_velocity, target_velocity, actual_velocity, theory_q, actual_q, actual_qdd
 0, 0.000000, 0.001000, 0.000000, 0.000000, -2.280000, -2.280000, 0.000000
  1, 0.012079, 0.002000, 0.001000, 0.001000, -2.279976, -2.279998, 0.083333
  2, 0.024170, 0.004000, 0.002000, 0.002000, -2.279928, -2.279984, 0.083333
  3, 0.045761, 0.007000, 0.004000, 0.004000, -2.279844, -2.279925, 0.166667
  4, 0.057852, 0.011000, 0.007000, 0.007000, -2.279712, -2.279850, 0.250000
  5, 0.070001, 0.016000, 0.011000, 0.011000, -2.279520, -2.279752, 0.333333
  6, 0.082078, 0.022000, 0.016000, 0.016000, -2.279256, -2.279586, 0.416667
  7, 0.094128, 0.029000, 0.022000, 0.022000, -2.278908, -2.279355, 0.500000
  8, 0.106253, 0.037000, 0.026000, 0.026000, -2.278464, -2.279219, 0.333333
  9, 0.118337, 0.046000, 0.029000, 0.029000, -2.277912, -2.278931, 0.250000
 10, 0.130947, 0.056000, 0.037000, 0.037000, -2.277240, -2.278503, 0.666667
 11, 0.143019, 0.067000, 0.046000, 0.046000, -2.276436, -2.278063, 0.750000
 12, 0.155091, 0.079000, 0.056000, 0.056000, -2.275488, -2.277436, 0.833333
 13, 0.167152, 0.092000, 0.076000, 0.076000, -2.274384, -2.276664, 1.666666
 14, 0.179225, 0.106000, 0.092000, 0.092000, -2.273112, -2.275631, 1.333333
 15, 0.191288, 0.121000, 0.106000, 0.106000, -2.271660, -2.274436, 1.166667
 16, 0.203353, 0.137000, 0.121000, 0.121000, -2.270016, -2.273312, 1.250000
 17, 0.215453, 0.154000, 0.137000, 0.137000, -2.268168, -2.271796, 1.333333
 18, 0.227540, 0.172000, 0.153000, 0.153000, -2.266104, -2.270088, 1.333333
 19, 0.239616, 0.191000, 0.170000, 0.170000, -2.263812, -2.268176, 1.416667
 20, 0.251690, 0.211000, 0.184000, 0.184000, -2.261280, -2.266421, 1.166667
 21, 0.263749, 0.232000, 0.203000, 0.203000, -2.258496, -2.264106, 1.583333
 22, 0.275919, 0.254000, 0.219000, 0.219000, -2.255448, -2.261996, 1.333333
 23, 0.287996, 0.277000, 0.240000, 0.240000, -2.252124, -2.259238, 1.750000
 24, 0.301238, 0.301000, 0.254000, 0.254000, -2.248512, -2.257255, 1.166668
 25, 0.313349, 0.326000, 0.258000, 0.258000, -2.244600, -2.256743, 0.333333
 26, 0.325476, 0.325000, 0.274000, 0.274000, -2.240700, -2.254615, 1.333333
 27, 0.337537, 0.323000, 0.297000, 0.297000, -2.236824, -2.251193, 1.916667
 28, 0.349649, 0.320000, 0.321000, 0.321000, -2.232984, -2.247485, 2.000000
 29, 0.361704, 0.316000, 0.320000, 0.320000, -2.229192, -2.244278, -0.083334
 30, 0.373773, 0.311000, 0.316000, 0.316000, -2.225460, -2.240466, -0.333332
 31, 0.385836, 0.305000, 0.311000, 0.311000, -2.221800, -2.236708, -0.416669
 32, 0.397907, 0.298000, 0.305000, 0.305000, -2.218224, -2.233015, -0.499999
 33, 0.409977, 0.290000, 0.298000, 0.298000, -2.214744, -2.229994, -0.583333
 34, 0.422100, 0.281000, 0.290000, 0.290000, -2.211372, -2.226450, -0.666668
 35, 0.434185, 0.271000, 0.281000, 0.281000, -2.208120, -2.223004, -0.750000
 36, 0.446262, 0.260000, 0.271000, 0.271000, -2.205000, -2.219667, -0.833333
 37, 0.458344, 0.248000, 0.260000, 0.260000, -2.202024, -2.216451, -0.916667
 38, 0.470413, 0.235000, 0.252000, 0.252000, -2.199204, -2.213867, -0.666666
 39, 0.482492, 0.221000, 0.240000, 0.240000, -2.196552, -2.210903, -1.000000
 40, 0.494622, 0.206000, 0.227000, 0.227000, -2.194080, -2.208093, -1.083333
 41, 0.506696, 0.190000, 0.213000, 0.213000, -2.191800, -2.205448, -1.166667
 42, 0.518788, 0.173000, 0.202000, 0.202000, -2.189724, -2.203379, -0.916667
 43, 0.530865, 0.155000, 0.186000, 0.186000, -2.187864, -2.201067, -1.333334
 44, 0.542997, 0.136000, 0.169000, 0.169000, -2.186232, -2.198953, -1.416667
 45, 0.555073, 0.116000, 0.151000, 0.151000, -2.184840, -2.197048, -1.499999
 46, 0.567218, 0.095000, 0.132000, 0.132000, -2.183700, -2.195364, -1.583333
 47, 0.579333, 0.073000, 0.116000, 0.116000, -2.182824, -2.194140, -1.333335
 48, 0.591455, 0.050000, 0.095000, 0.095000, -2.182224, -2.192890, -1.750000
 49, 0.603528, 0.026000, 0.073000, 0.073000, -2.181912, -2.191893, -1.833333
 