danissomo/mipt/results/dt=0.0120_a=2.00_k=0.0020_jmv=1.csv
i, timestamp, command_velocity, target_velocity, actual_velocity, theory_q, actual_q, actual_qdd
 0, 0.000000, 0.001000, 0.000000, 0.000000, -2.280000, -2.280000, 0.000000
  1, 0.012078, 0.003000, 0.001000, 0.001000, -2.279964, -2.279994, 0.083333
  2, 0.024147, 0.007000, 0.003000, 0.003000, -2.279880, -2.279977, 0.166667
  3, 0.036390, 0.013000, 0.007000, 0.007000, -2.279724, -2.279929, 0.333333
  4, 0.048450, 0.021000, 0.013000, 0.013000, -2.279472, -2.279830, 0.500000
  5, 0.060550, 0.031000, 0.017000, 0.017000, -2.279100, -2.279696, 0.333333
  6, 0.072679, 0.043000, 0.025000, 0.025000, -2.278584, -2.279444, 0.666667
  7, 0.084791, 0.057000, 0.035000, 0.035000, -2.277900, -2.279077, 0.833333
  8, 0.096878, 0.073000, 0.047000, 0.047000, -2.277024, -2.278573, 1.000000
  9, 0.108936, 0.091000, 0.061000, 0.061000, -2.275932, -2.277910, 1.166667
 10, 0.121041, 0.111000, 0.073000, 0.073000, -2.274600, -2.277216, 1.000000
 11, 0.133103, 0.133000, 0.091000, 0.091000, -2.273004, -2.276205, 1.500000
 12, 0.145194, 0.157000, 0.111000, 0.111000, -2.271120, -2.274973, 1.666667
 13, 0.157367, 0.183000, 0.131000, 0.131000, -2.268924, -2.273763, 1.666666
 14, 0.169475, 0.211000, 0.153000, 0.153000, -2.266392, -2.272068, 1.833333
 15, 0.181540, 0.241000, 0.177000, 0.177000, -2.263500, -2.270088, 2.000000
 16, 0.193679, 0.273000, 0.197000, 0.197000, -2.260224, -2.268218, 1.666667
 17, 0.205727, 0.307000, 0.221000, 0.221000, -2.256540, -2.265710, 2.000000
 18, 0.217802, 0.343000, 0.245000, 0.245000, -2.252424, -2.262914, 2.000000
 19, 0.229868, 0.381000, 0.269000, 0.269000, -2.247852, -2.259830, 2.000000
 20, 0.241914, 0.421000, 0.289000, 0.289000, -2.242800, -2.257040, 1.666667
 21, 0.253979, 0.463000, 0.313000, 0.313000, -2.237244, -2.253428, 2.000000
 22, 0.266027, 0.507000, 0.337000, 0.337000, -2.231160, -2.249528, 2.000000
 23, 0.278097, 0.553000, 0.361000, 0.361000, -2.224524, -2.245340, 2.000000
 24, 0.290165, 0.601000, 0.381000, 0.381000, -2.217312, -2.241630, 1.666667
 25, 0.302235, 0.651000, 0.405000, 0.405000, -2.209500, -2.236914, 2.000000
 26, 0.314302, 0.649000, 0.425000, 0.425000, -2.201712, -2.232764, 1.666667
 27, 0.326373, 0.645000, 0.453000, 0.453000, -2.193972, -2.226618, 2.333333
 28, 0.338470, 0.639000, 0.473000, 0.473000, -2.186304, -2.221988, 1.666667
 29, 0.350621, 0.631000, 0.497000, 0.497000, -2.178732, -2.216168, 2.000000
 30, 0.362757, 0.621000, 0.521000, 0.521000, -2.171280, -2.210060, 2.000000
 31, 0.374825, 0.609000, 0.545000, 0.545000, -2.163972, -2.203664, 2.000000
 32, 0.386934, 0.595000, 0.565000, 0.565000, -2.156832, -2.198114, 1.666667
 33, 0.399046, 0.579000, 0.589000, 0.589000, -2.149884, -2.191190, 2.000000
 34, 0.411127, 0.561000, 0.595000, 0.595000, -2.143152, -2.184059, 0.500002
 35, 0.423198, 0.541000, 0.579000, 0.579000, -2.136660, -2.177047, -1.333336
 36, 0.435342, 0.519000, 0.561000, 0.561000, -2.130432, -2.171356, -1.500001
 37, 0.447472, 0.495000, 0.541000, 0.541000, -2.124492, -2.164724, -1.666666
 38, 0.459582, 0.469000, 0.517000, 0.517000, -2.118864, -2.158376, -2.000000
 39, 0.471746, 0.441000, 0.485000, 0.485000, -2.113572, -2.150360, -2.666667
 40, 0.483840, 0.411000, 0.481000, 0.481000, -2.108640, -2.149394, -0.333333
 41, 0.495923, 0.379000, 0.461000, 0.461000, -2.104092, -2.144684, -1.666667
 42, 0.508093, 0.345000, 0.441000, 0.441000, -2.099952, -2.140174, -1.666667
 43, 0.520197, 0.309000, 0.425000, 0.425000, -2.096244, -2.136710, -1.333333
 44, 0.532300, 0.271000, 0.397000, 0.397000, -2.092992, -2.130956, -2.333333
 45, 0.544380, 0.231000, 0.377000, 0.377000, -2.090220, -2.127086, -1.666667
 46, 0.556609, 0.189000, 0.357000, 0.357000, -2.087952, -2.123416, -1.666667
 47, 0.568691, 0.145000, 0.341000, 0.341000, -2.086212, -2.120624, -1.333333
 48, 0.580771, 0.099000, 0.309000, 0.309000, -2.085024, -2.115424, -2.666667
 49, 0.592857, 0.051000, 0.289000, 0.289000, -2.084412, -2.112434, -1.666667
 