danissomo/mipt/results/dt=0.0040_a=3.00_k=0.0010_jmv=1.csv
i, timestamp, command_velocity, target_velocity, actual_velocity, theory_q, actual_q, actual_qdd
 0, 0.000000, 0.001000, 0.000000, 0.000000, -2.280000, -2.280000, 0.000000
  1, 0.004071, 0.002000, 0.000000, 0.000000, -2.279992, -2.280000, 0.000000
  2, 0.008148, 0.004000, 0.001000, 0.001000, -2.279976, -2.279998, 0.250000
  3, 0.012219, 0.007000, 0.004000, 0.004000, -2.279948, -2.279990, 0.750000
  4, 0.016314, 0.011000, 0.007000, 0.007000, -2.279904, -2.279969, 0.750000
  5, 0.020528, 0.016000, 0.011000, 0.011000, -2.279840, -2.279936, 1.000000
  6, 0.024609, 0.022000, 0.011000, 0.011000, -2.279752, -2.279914, 0.000000
  7, 0.028682, 0.029000, 0.016000, 0.016000, -2.279636, -2.279854, 1.250000
  8, 0.033803, 0.037000, 0.028000, 0.028000, -2.279488, -2.279722, 2.999999
  9, 0.037881, 0.046000, 0.035000, 0.035000, -2.279304, -2.279600, 1.750000
 10, 0.041956, 0.056000, 0.037000, 0.037000, -2.279080, -2.279527, 0.500001
 11, 0.046071, 0.067000, 0.046000, 0.046000, -2.278812, -2.279356, 2.250000
 12, 0.050182, 0.079000, 0.056000, 0.056000, -2.278496, -2.279149, 2.500000
 13, 0.054255, 0.092000, 0.067000, 0.067000, -2.278128, -2.278901, 2.750000
 14, 0.058341, 0.106000, 0.079000, 0.079000, -2.277704, -2.278609, 2.999998
 15, 0.062407, 0.121000, 0.091000, 0.091000, -2.277220, -2.278269, 3.000000
 16, 0.066482, 0.137000, 0.103000, 0.103000, -2.276672, -2.277881, 3.000000
 17, 0.070558, 0.154000, 0.115000, 0.115000, -2.276056, -2.277445, 3.000000
 18, 0.074687, 0.172000, 0.127000, 0.127000, -2.275368, -2.276961, 3.000000
 19, 0.078819, 0.191000, 0.139000, 0.139000, -2.274604, -2.276429, 3.000000
 20, 0.082892, 0.211000, 0.151000, 0.151000, -2.273760, -2.275849, 3.000000
 21, 0.087035, 0.232000, 0.163000, 0.163000, -2.272832, -2.275221, 3.000000
 22, 0.091133, 0.254000, 0.175000, 0.175000, -2.271816, -2.274545, 3.000000
 23, 0.095229, 0.277000, 0.187000, 0.187000, -2.270708, -2.273821, 3.000000
 24, 0.099362, 0.301000, 0.199000, 0.199000, -2.269504, -2.273049, 3.000000
 25, 0.103477, 0.326000, 0.211000, 0.211000, -2.268200, -2.272229, 3.000000
 26, 0.107550, 0.325000, 0.223000, 0.223000, -2.266900, -2.271361, 3.000000
 27, 0.111623, 0.323000, 0.235000, 0.235000, -2.265608, -2.270445, 3.000000
 28, 0.115702, 0.320000, 0.247000, 0.247000, -2.264328, -2.269481, 3.000000
 29, 0.119784, 0.316000, 0.259000, 0.259000, -2.263064, -2.268469, 3.000000
 30, 0.123861, 0.311000, 0.271000, 0.271000, -2.261820, -2.267409, 3.000000
 31, 0.127938, 0.305000, 0.283000, 0.283000, -2.260600, -2.266301, 3.000000
 32, 0.132015, 0.298000, 0.295000, 0.295000, -2.259408, -2.265145, 3.000000
 33, 0.136086, 0.290000, 0.305000, 0.305000, -2.258248, -2.263942, 2.500003
 34, 0.140162, 0.281000, 0.298000, 0.298000, -2.257124, -2.262742, -1.750000
 35, 0.144316, 0.271000, 0.290000, 0.290000, -2.256040, -2.261571, -2.000004
 36, 0.148512, 0.260000, 0.281000, 0.281000, -2.255000, -2.260433, -2.250001
 37, 0.152608, 0.248000, 0.271000, 0.271000, -2.254008, -2.259333, -2.499998
 38, 0.156784, 0.235000, 0.260000, 0.260000, -2.253068, -2.258273, -2.750002
 39, 0.160963, 0.221000, 0.248000, 0.248000, -2.252184, -2.257257, -2.999995
 40, 0.165033, 0.206000, 0.242000, 0.242000, -2.251360, -2.256767, -1.499998
 41, 0.169103, 0.190000, 0.230000, 0.230000, -2.250600, -2.255823, -3.000000
 42, 0.173209, 0.173000, 0.218000, 0.218000, -2.249908, -2.254927, -3.000000
 43, 0.177279, 0.155000, 0.206000, 0.206000, -2.249288, -2.254079, -3.000000
 44, 0.181343, 0.136000, 0.194000, 0.194000, -2.248744, -2.253279, -3.000000
 45, 0.185406, 0.116000, 0.182000, 0.182000, -2.248280, -2.252527, -3.000000
 46, 0.189470, 0.095000, 0.170000, 0.170000, -2.247900, -2.251823, -3.000000
 47, 0.193622, 0.073000, 0.158000, 0.158000, -2.247608, -2.251167, -3.000000
 48, 0.197733, 0.050000, 0.146000, 0.146000, -2.247408, -2.250559, -3.000000
 49, 0.201802, 0.026000, 0.134000, 0.134000, -2.247304, -2.249999, -3.000000
 